images/trainings-block-person.svg

<svg fill="none" height="14" viewBox="0 0 14 14" width="14" xmlns="http://www.w3.org/2000/svg"><path d="m6.99952 6.98547c.5193.00019 1.027-.15362 1.45887-.44199.43186-.28836.7685-.69832.96731-1.17802.19882-.47969.25089-1.00757.14963-1.51686-.10127-.50929-.35132-.97711-.71852-1.34428-.36721-.36717-.83507-.6172-1.34441-.71845-.50933-.10126-1.03726-.04919-1.517.1496-.47974.1988-.88974.53541-1.17813.96723-.28839.43183-.44222.93948-.44203 1.45874 0 .69593.27649 1.36337.76863 1.85547.49215.4921 1.15965.76856 1.85565.76856zm0 1.31202c-1.75209.00096-5.24952.87982-5.24952 2.62601v1.312h10.5v-1.312c0-1.74619-3.49743-2.62601-5.25048-2.62601z" fill="#08274d" fill-opacity=".3"/></svg>

<svg width="14" height="14" viewBox="0 0 14 14" fill="none" xmlns="http://www.w3.org/2000/svg">
<g id="person">
<path id="Icon material-person" d="M6.99952 6.98547C7.51882 6.98566 8.02652 6.83185 8.45839 6.54348C8.89025 6.25512 9.22689 5.84516 9.4257 5.36546C9.62452 4.88577 9.67659 4.35789 9.57533 3.8486C9.47406 3.33931 9.22401 2.87149 8.85681 2.50432C8.4896 2.13715 8.02174 1.88712 7.5124 1.78587C7.00307 1.68461 6.47514 1.73668 5.9954 1.93547C5.51566 2.13427 5.10566 2.47088 4.81727 2.9027C4.52888 3.33453 4.37505 3.84218 4.37524 4.36144C4.37524 5.05737 4.65173 5.72481 5.14387 6.21691C5.63602 6.70901 6.30352 6.98547 6.99952 6.98547ZM6.99952 8.29749C5.24743 8.29845 1.75 9.17731 1.75 10.9235V12.2355H12.25V10.9235C12.25 9.17731 8.75257 8.29749 6.99952 8.29749Z" fill="#08274D" fill-opacity="0.3"/>
</g>
</svg>
